synths/sFB.svg

<svg width="42" height="42" viewBox="0 0 42 42" fill="none" xmlns="http://www.w3.org/2000/svg">
<g clip-path="url(#clip0_7277_57847)">
<mask id="mask0_7277_57847" style="mask-type:alpha" maskUnits="userSpaceOnUse" x="0" y="0" width="42" height="42">
<circle cx="21" cy="21" r="21" fill="url(#paint0_linear_7277_57847)"/>
</mask>
<g mask="url(#mask0_7277_57847)">
<circle cx="21" cy="21" r="21" fill="#34EDB3"/>
<circle cx="21" cy="21" r="18.2" fill="white"/>
</g>
<circle cx="21" cy="21" r="16.1" fill="#06061B"/>
<path d="M37.1 21C37.1 12.1082 29.8918 4.90002 21 4.90002C12.1082 4.90002 4.90002 12.1082 4.90002 21C4.90002 29.036 10.7876 35.6966 18.4844 36.9044V25.6539H14.3965V21H18.4844V17.453C18.4844 13.4179 20.888 11.1891 24.5656 11.1891C26.3271 11.1891 28.1696 11.5035 28.1696 11.5035V15.4657H26.1394C24.1394 15.4657 23.5157 16.7067 23.5157 17.9799V21H27.9809L27.2671 25.6539H23.5156V36.9044C31.2125 35.6966 37.1 29.036 37.1 21" fill="#1877F2"/>
<path d="M27.267 25.6539L27.9809 21H23.5156V17.9799C23.5156 16.7067 24.1393 15.4656 26.1394 15.4656H28.1695V11.5035C28.1695 11.5035 26.3271 11.1891 24.5656 11.1891C20.888 11.1891 18.4844 13.4179 18.4844 17.453V21H14.3965V25.6539H18.4844V36.9044C19.3166 37.0348 20.1577 37.1002 21 37.1C21.8558 37.1 22.6959 37.033 23.5156 36.9044V25.6539H27.267Z" fill="white"/>
</g>
<defs>
<linearGradient id="paint0_linear_7277_57847" x1="21" y1="0" x2="21" y2="61.4091" gradientUnits="userSpaceOnUse">
<stop stop-color="#08021E"/>
<stop offset="1" stop-color="#1F0777"/>
</linearGradient>
<clipPath id="clip0_7277_57847">
<rect width="42" height="42" fill="white"/>
</clipPath>
</defs>
</svg>

<svg xmlns="http://www.w3.org/2000/svg" width="42" height="42" fill="none"><g clip-path="url(#a)"><mask id="c" width="42" height="42" x="0" y="0" maskUnits="userSpaceOnUse" style="mask-type:alpha"><circle cx="21" cy="21" r="21" fill="url(#b)"/></mask><g mask="url(#c)"><circle cx="21" cy="21" r="21" fill="#34EDB3"/><circle cx="21" cy="21" r="18.2" fill="#fff"/></g><circle cx="21" cy="21" r="16.1" fill="#06061B"/><path fill="#1877F2" d="M37.1 21c0-8.892-7.208-16.1-16.1-16.1-8.892 0-16.1 7.208-16.1 16.1 0 8.036 5.888 14.697 13.584 15.904v-11.25h-4.088V21h4.088v-3.547c0-4.035 2.404-6.264 6.082-6.264 1.761 0 3.604.315 3.604.315v3.962h-2.03c-2 0-2.624 1.24-2.624 2.514V21h4.465l-.714 4.654h-3.751v11.25C31.213 35.697 37.1 29.036 37.1 21"/><path fill="#fff" d="M27.267 25.654 27.981 21h-4.465v-3.02c0-1.273.623-2.514 2.623-2.514h2.03v-3.962s-1.842-.315-3.603-.315c-3.678 0-6.082 2.229-6.082 6.264V21h-4.088v4.654h4.088v11.25a16.226 16.226 0 0 0 5.032 0v-11.25h3.751Z"/></g><defs><linearGradient id="b" x1="21" x2="21" y1="0" y2="61.409" gradientUnits="userSpaceOnUse"><stop stop-color="#08021E"/><stop offset="1" stop-color="#1F0777"/></linearGradient><clipPath id="a"><path fill="#fff" d="M0 0h42v42H0z"/></clipPath></defs></svg>
